X:261
T:Plinn Shep#2
O:Shepherd Plinn#2 (frm Bm)
J:Lark14
Q:1/4=120
M:4/4
K:Emin
L:1/8
|:"Em"EGBc BA"G"G2|GFED "D"EF"Em"E2:|\
|:"Em"EGBA Bde2|"C"efgf "G"edB2|BcBA GAB2|"D"AGED "Em"EFE2:|

